build/images/icon-profile.svg

<svg width="26" height="30" viewBox="0 0 26 30" fill="none" xmlns="http://www.w3.org/2000/svg">
<path d="M12.8034 14.4511C14.8657 14.4511 16.6513 13.7391 18.1107 12.3342C19.5695 10.9295 20.3095 9.21087 20.3095 7.22533C20.3095 5.24047 19.5698 3.52157 18.1104 2.11647C16.651 0.71205 14.8655 0 12.8034 0C10.7408 0 8.95547 0.71205 7.49633 2.1167C6.0372 3.52134 5.29729 5.24024 5.29729 7.22533C5.29729 9.21087 6.0372 10.9298 7.49633 12.3344C8.95594 13.7388 10.7415 14.4511 12.8034 14.4511ZM8.78785 3.35975C9.90746 2.28195 11.2208 1.75804 12.8034 1.75804C14.3857 1.75804 15.6993 2.28195 16.8191 3.35975C17.9388 4.43778 18.4832 5.70235 18.4832 7.22533C18.4832 8.74876 17.9388 10.0131 16.8191 11.0911C15.6993 12.1692 14.3857 12.6931 12.8034 12.6931C11.2213 12.6931 9.90793 12.1689 8.78785 11.0911C7.668 10.0133 7.12353 8.74876 7.12353 7.22533C7.12353 5.70235 7.668 4.43778 8.78785 3.35975Z" fill="#74CA5E"/>
<path d="M25.937 23.0685C25.8949 22.4839 25.8098 21.8463 25.6845 21.1729C25.558 20.4945 25.3951 19.8532 25.2002 19.267C24.9986 18.6612 24.7249 18.0629 24.3861 17.4895C24.0349 16.8944 23.6222 16.3762 23.159 15.9498C22.6747 15.5037 22.0817 15.1451 21.396 14.8835C20.7127 14.6232 19.9554 14.4914 19.1454 14.4914C18.8273 14.4914 18.5196 14.6171 17.9254 14.9894C17.5598 15.219 17.132 15.4845 16.6546 15.7782C16.2464 16.0286 15.6933 16.2632 15.0103 16.4756C14.3438 16.6832 13.6672 16.7885 12.999 16.7885C12.3314 16.7885 11.6548 16.6832 10.9878 16.4756C10.3055 16.2634 9.7522 16.0288 9.34468 15.7784C8.87177 15.4875 8.44381 15.222 8.07266 14.9892C7.47898 14.6168 7.17132 14.4912 6.85319 14.4912C6.04291 14.4912 5.28588 14.6232 4.60279 14.8837C3.91757 15.1449 3.32436 15.5035 2.83957 15.9501C2.37641 16.3767 1.96366 16.8947 1.61273 17.4895C1.27439 18.0629 1.00049 18.6609 0.798873 19.2672C0.604148 19.8534 0.441282 20.4945 0.314794 21.1729C0.189257 21.8454 0.104377 22.4833 0.0622931 23.0692C0.0209229 23.6421 0 24.2383 0 24.8407C0 26.4067 0.517128 27.6745 1.53688 28.6095C2.54403 29.5321 3.87644 29.9999 5.49725 29.9999H20.5028C22.1231 29.9999 23.4555 29.5321 24.4629 28.6095C25.4829 27.6752 26 26.407 26 24.8405C25.9998 24.236 25.9786 23.6398 25.937 23.0685ZM23.2037 27.3358C22.5382 27.9455 21.6547 28.2419 20.5025 28.2419H5.49725C4.34483 28.2419 3.46131 27.9455 2.79606 27.336C2.14341 26.7379 1.82623 25.9215 1.82623 24.8407C1.82623 24.2786 1.84549 23.7236 1.88401 23.1907C1.92158 22.668 1.99837 22.0937 2.11226 21.4835C2.22472 20.8809 2.36785 20.3153 2.53809 19.8033C2.70143 19.3123 2.92421 18.8262 3.20049 18.3579C3.46416 17.9116 3.76754 17.5287 4.10231 17.2201C4.41544 16.9315 4.81012 16.6953 5.27518 16.5181C5.70529 16.3543 6.18865 16.2645 6.71339 16.251C6.77735 16.2838 6.89123 16.3463 7.07574 16.4621C7.45116 16.6976 7.88388 16.9663 8.36226 17.2604C8.90149 17.5914 9.59623 17.8903 10.4262 18.1482C11.2748 18.4124 12.1403 18.5465 12.9993 18.5465C13.8583 18.5465 14.724 18.4124 15.5721 18.1485C16.4028 17.8901 17.0973 17.5914 17.6373 17.2599C18.1268 16.9587 18.5474 16.6978 18.9228 16.4621C19.1073 16.3465 19.2212 16.2838 19.2852 16.251C19.8102 16.2645 20.2935 16.3543 20.7239 16.5181C21.1887 16.6953 21.5834 16.9317 21.8965 17.2201C22.2313 17.5284 22.5346 17.9113 22.7983 18.3581C23.0748 18.8262 23.2979 19.3126 23.461 19.803C23.6314 20.3157 23.7748 20.8811 23.887 21.4833C24.0007 22.0946 24.0777 22.6691 24.1153 23.191C24.154 23.7217 24.1735 24.277 24.1738 24.8407C24.1735 25.9217 23.8564 26.7379 23.2037 27.3358Z" fill="#74CA5E"/>
</svg>

<svg width="26" height="30" fill="none" xmlns="http://www.w3.org/2000/svg"><path d="M12.803 14.451c2.063 0 3.848-.712 5.308-2.117 1.459-1.404 2.198-3.123 2.198-5.109 0-1.985-.74-3.703-2.199-5.109C16.651.712 14.866 0 12.803 0c-2.062 0-3.848.712-5.307 2.117C6.037 3.52 5.297 5.24 5.297 7.225c0 1.986.74 3.705 2.2 5.11 1.459 1.404 3.245 2.116 5.306 2.116zM8.788 3.36c1.12-1.078 2.433-1.602 4.015-1.602 1.583 0 2.896.524 4.016 1.602s1.664 2.342 1.664 3.865c0 1.524-.544 2.788-1.664 3.866-1.12 1.078-2.433 1.602-4.016 1.602-1.582 0-2.895-.524-4.015-1.602-1.12-1.078-1.664-2.342-1.664-3.866 0-1.523.544-2.787 1.664-3.865zm17.149 19.709a17.218 17.218 0 00-.253-1.896 14.405 14.405 0 00-.484-1.906 9.242 9.242 0 00-.814-1.777 6.737 6.737 0 00-1.227-1.54 5.444 5.444 0 00-1.763-1.066 6.302 6.302 0 00-2.25-.393c-.319 0-.626.126-1.22.498-.366.23-.794.495-1.271.79-.409.25-.962.484-1.645.697a6.762 6.762 0 01-2.011.313 6.767 6.767 0 01-2.011-.313c-.682-.213-1.236-.447-1.643-.698-.473-.29-.901-.556-1.272-.789-.594-.372-.902-.498-1.22-.498-.81 0-1.567.132-2.25.393A5.44 5.44 0 002.84 15.95a6.739 6.739 0 00-1.227 1.54 9.258 9.258 0 00-.814 1.777 14.512 14.512 0 00-.484 1.906 17.1 17.1 0 00-.253 1.896A24.983 24.983 0 000 24.841c0 1.566.517 2.833 1.537 3.768 1.007.923 2.34 1.39 3.96 1.39h15.006c1.62 0 2.953-.467 3.96-1.39C25.483 27.675 26 26.407 26 24.84c0-.604-.021-1.2-.063-1.771zm-2.733 4.267c-.666.61-1.55.906-2.701.906H5.497c-1.152 0-2.036-.297-2.7-.906-.654-.598-.97-1.414-.97-2.495 0-.562.018-1.117.057-1.65.038-.523.114-1.097.228-1.707a12.86 12.86 0 01.426-1.68c.163-.492.386-.978.662-1.446a5.02 5.02 0 01.902-1.138 3.614 3.614 0 011.173-.702c.43-.164.914-.253 1.438-.267.064.033.178.095.363.211.375.236.808.504 1.286.798.54.331 1.234.63 2.064.888a8.652 8.652 0 002.573.399 8.65 8.65 0 002.573-.399c.83-.258 1.525-.557 2.065-.888.49-.301.91-.562 1.286-.798a4.84 4.84 0 01.362-.211 4.35 4.35 0 011.439.267c.465.177.86.414 1.172.702.335.308.639.691.902 1.138.277.468.5.955.663 1.445.17.513.314 1.078.426 1.68.114.612.19 1.186.228 1.708.039.53.059 1.086.059 1.65 0 1.08-.318 1.897-.97 2.495z" fill="#74CA5E"/></svg>
